!!!!SEGMENT: pl-gd--ee-1638--006-003_marenzio-luca--il-quinto-libro-de-madrigalia-a-cinque-voci-quando-ripenso.krn
!!!cenid: 15xx:885
!!!COM: Marenzio, Luca
!!!COM-rismid: pe30003955
!!!CDT: ~1553-1599/08/22
!!!CNT: Italian
!!!GTL: Il Quinto libro de madrigalia a cinque voci
!!!OTL: Quando ripenso
!!!OMV: 003
!!!PDT: 1585
!!!AGN:
!!!SMS-siglum: PL-GD
!!!SMS-shelfmark: Ee 1638
!!!SMS-shelfwork: 006-003 G
!!!SMS-variant:
!!!SMS-altvar:
!!!NIFC-rismid: 990039296
!!!URL-scan: https://repozytorium.nifc.pl/islandora/object/pl-gd%3A57883/datastream/PDF/view
!!!ONB-nifc:
!!!AIN: 1 alto 1 bass  1 soprn 1 tenor  1 vox
!!!key: C
**kern	**text	**kern	**text	**kern	**text	**kern	**text	**kern	**text
*part1	*part1	*part2	*part2	*part3	*part3	*part4	*part4	*part5	*part5
*staff1	*staff1	*staff2	*staff2	*staff3	*staff3	*staff4	*staff4	*staff5	*staff5
*I"QVINTO	*	*I"BASSO	*	*I"TENORE	*	*I"ALTO	*	*I"CANTO	*
*I'V	*	*I'B	*	*I'T	*	*I'A	*	*I'S	*
*ICvox	*	*ICvox	*	*ICvox	*	*ICvox	*	*ICvox	*
*Ivox	*	*Ibass 	*	*Itenor 	*	*Ialto	*	*Isoprn	*
*clefC3	*	*clefC4	*	*clefC3	*	*clefC2	*	*clefG2	*
*k[]	*	*k[]	*	*k[]	*	*k[]	*	*k[]	*
*C:	*	*C:	*	*C:	*	*C:	*	*C:	*
*M2/1	*	*M2/1	*	*M2/1	*	*M2/1	*	*M2/1	*
*met(C)	*	*met(C)	*	*met(C)	*	*met(C)	*	*met(C)	*
=1-	=1-	=1-	=1-	=1-	=1-	=1-	=1-	=1-	=1-
!!LO:TX:t=P:problem: VHV błędnie wyświetla klamrę	!	!	!	!	!	!	!	!	!
!LO:TX:a:t=Terza parte	!	!LO:TX:a:t=Terza parte	!	!LO:TX:a:t=Terza parte	!	!LO:TX:a:t=Terza parte	!	!LO:TX:a:t=Terza parte.	!
00r	.	0r	.	00r	.	1d	QVan-	2r	.
.	.	.	.	.	.	.	.	1a	QVan-
.	.	.	.	.	.	4.d/	-do	.	.
.	.	.	.	.	.	8e/	ri-	.	.
.	.	.	.	.	.	2.f\	-pen-	4.a/	-do
.	.	.	.	.	.	.	.	8b/	ri-
=2-	=2-	=2-	=2-	=2-	=2-	=2-	=2-	=2-	=2-
.	.	0r	.	.	.	.	.	2.cc\	-pen-
.	.	.	.	.	.	4f\	-ſo al	.	.
.	.	.	.	.	.	4f\	be-	.	.
.	.	.	.	.	.	4f\	-ne-	4cc\	-ſo al
.	.	.	.	.	.	4.e\	-det-	4cc\	be-
.	.	.	.	.	.	.	.	4cc\	-ne-
.	.	.	.	.	.	8f\	-to	.	.
.	.	.	.	.	.	2g\	gior-	4.b/	-det-
.	.	.	.	.	.	.	.	8cc\	-to
=3-	=3-	=3-	=3-	=3-	=3-	=3-	=3-	=3-	=3-
00r	.	0r	.	00r	.	2g\	-no	2dd\	gior-
.	.	.	.	.	.	4r	.	2dd\	-no
.	.	.	.	.	.	4g\	Che	.	.
.	.	.	.	.	.	4.g\	nel	4r	.
!	!	!	!	!	!	!	!	!LO:SIC:v:t=custos dd	!
.	.	.	.	.	.	.	.	4dd\	Che
!	!	!	!	!	!	!LO:SIC:v:t=custos f	!	!	!
.	.	.	.	.	.	8d/	mio	.	.
!	!	!	!	!	!	!LO:LB:g=original	!	!LO:LB:g=original	!
.	.	.	.	.	.	4f\	cor	4.dd\	nel
.	.	.	.	.	.	4g\	ri-	.	.
.	.	.	.	.	.	.	.	8b/	mio
=4-	=4-	=4-	=4-	=4-	=4-	=4-	=4-	=4-	=4-
.	.	0r	.	.	.	2.a\	-no-	4cc\	cor-
.	.	.	.	.	.	.	.	4dd\	-ri-
.	.	.	.	.	.	.	.	2.ee\	-no-
.	.	.	.	.	.	4g\	-ua il	.	.
.	.	.	.	.	.	4g\	dol-	.	.
.	.	.	.	.	.	4f#X\	-ce	4dd\	-ua
.	.	.	.	.	.	4.g\	tem-	4dd\	il
.	.	.	.	.	.	.	.	4ee\	dol-
.	.	.	.	.	.	8f#\	.	.	.
=5-	=5-	=5-	=5-	=5-	=5-	=5-	=5-	=5-	=5-
1r	.	1r	.	1r	.	1e	.	4cc#X\	-ce
.	.	.	.	.	.	.	.	2dd\	tem-
.	.	.	.	.	.	.	.	4cc#X\	.
4r	.	4r	.	4r	.	1d	-po	2dd\	-po
4A/	Soſ-	4D/	Soſ-	4f#X\	Soſ-	.	.	.	.
2B/	-pi-	2G/	-pi-	1g\	-pi-	.	.	4r	.
!	!	!	!	!	!	!	!	!LO:SIC:v:t=custos gg	!
.	.	.	.	.	.	.	.	4dd\	So-
!	!	!	!	!	!	!	!	!LO:LB:g=original	!
=6-	=6-	=6-	=6-	=6-	=6-	=6-	=6-	=6-	=6-
2B/	-ro	2E/	-ro	.	.	4r	.	2gg\	-ſpi-
.	.	.	.	.	.	4g\	Soſ-	.	.
4e\	ſoſ-	4r	.	4c/	-ro	2cc\	-pi-	2ee\	-ro
2a\	-pi-	4A/	Soſ-	4e\	ſoſ-	.	.	.	.
.	.	2d\	-pi-	2f#X\	-pi-	2a\	-ro	4r	.
4d\	-ro il	.	.	.	.	.	.	4a/	ſoſ-
2B/	don	1G/	-ro il	2g\	-ro il	4r	.	2dd\	-pir'-
.	.	.	.	.	.	4d/	ſoſ-	.	.
=7-	=7-	=7-	=7-	=7-	=7-	=7-	=7-	=7-	=7-
4r	.	.	.	2d\	don	2g\	-pi-	2b/	-il
4g\	Soſ-	.	.	.	.	.	.	.	.
4.g\	-pi-	2.c\	don-	2r	.	2e/	-ro il	2.ccny\	don
8f\	-ro il	.	.	.	.	.	.	.	.
4e\	don	.	.	1r	.	4g\	don-	.	.
!LO:SIC:v:t=custos f	!	!	!	!	!	!	!	!	!
4f\	de	4F/	-ne	.	.	4a\	-de	4cc\	del'-
!LO:LB:g=original	!	!	!	!	!	!	!	!	!
4f\	l'ho-	4.F/	l'ho-	.	.	4a\	l'ho-	4cc\	-ho-
!	!	!	!	!	!	!LO:SIC:v:t=custos a	!	!	!
4d\	-no-	.	.	.	.	4a\	-no-	4ff\	-no-
.	.	8G/	-no-	.	.	.	.	.	.
!	!	!	!	!	!	!LO:LB:g=original	!	!	!
=8-	=8-	=8-	=8-	=8-	=8-	=8-	=8-	=8-	=8-
4c#X/	-ra-	4A/	-ra-	1r	.	4a\	-ra-	4ee\	-ra-
!	!	!LO:SIC:v:t=custos A	!	!	!	!	!	!	!
4d\	-ta	4B-X\	-ta	.	.	4fny\	-ta	4dd\	-ta
!	!	!LO:LB:g=original	!	!	!	!	!	!	!
2e\	ma-	2A/	ma-	.	.	2a\	ma-	2cc#X\	ma-
2e\	-no	2A/	-no	4r	.	2a\	-no	2cc#X\	-no
!	!	!	!	!LO:SIC:v:t=custos d	!	!	!	!	!
.	.	.	.	4A/	Ch'a	.	.	.	.
!	!	!	!	!LO:LB:g=original	!	!	!	!	!
2B/	Ch'a-	4G/	Ch'a-	2d\	mor	4r	.	4dd\	Ch'a-
.	.	2G/	-mor	.	.	4d/	Ch'a-	2dd\	-mor
=9-	=9-	=9-	=9-	=9-	=9-	=9-	=9-	=9-	=9-
4d\	-mor	.	.	4B/	mi	4g\	-mor	.	mi
4G/	mi	4E/	mi	2c/	fe-	4g\	mi	4ee\	fe-
2d\	fe-	2D/	fe-	.	.	8f\	fe-	2ff\	-ce
.	.	.	.	.	.	8e/	.	.	.
.	.	.	.	4B/	.	4d/	.	.	.
2G/	-ce	1C	-ce	2c/	-ce	1g	-ce	1ee	E
4r	.	.	.	4r	.	.	.	.	.
4cny/	E	.	.	4e\	E	.	.	.	.
=10-	=10-	=10-	=10-	=10-	=10-	=10-	=10-	=10-	=10-
2d\	di-	2r	.	2fny\	di-	2r	.	2r	.
!	!	!	!	!	!	!	!	!LO:SIC:v:t=custos ff	!
2e\	-co	2c\	E	2g\	-co	2cc\	E	2ee\	dic'-
!	!	!	!	!	!	!	!	!LO:LB:g=original	!
2r	.	2d\	di-	2r	.	2a\	di-	2ff\	-ou'-
4r	.	2e\	-co	2c/	e	4g\	-co ou'-	4gg\	-è
4e\	E	.	.	.	.	8g\	-è	8ee\	quell'-
.	.	.	.	.	.	8cc\	quell'-	8gg\	-om-
=11-	=11-	=11-	=11-	=11-	=11-	=11-	=11-	=11-	=11-
2f\	di-	2r	.	2d\	dic'-	8a\	-om-	8ff\	.
.	.	.	.	.	.	8g\	.	8ee\	.
.	.	.	.	.	.	8a\	.	8ff\	.
!	!	!	!	!	!	!LO:SIC:v:t=custos cc	!	!	!
.	.	.	.	.	.	8b\	.	8dd\	.
!	!	!	!	!	!	!LO:LB:g=original	!	!	!
4g\	-co ou'-	4r	.	4c/	-ou	4cc\	.	4ee\	.
8e\	-è	4c\	E	8c/	è	4g\	-bra	4ee\	-bra
!LO:SIC:v:t=custos f	!	!	!	!	!	!	!	!	!
8g\	quel	.	.	8e\	quell'-	.	.	.	.
!LO:LB:g=original	!	!	!	!	!	!	!	!	!
8c/	l'om-	2A/	di-	8e\	-om-	4r	.	2r	.
8B/	.	.	.	8d\	.	.	.	.	.
8c/	.	.	.	8e\	.	4c/	E	.	.
8A/	.	.	.	8f\	.	.	.	.	.
4B/	.	4G/	-co ou	4g\	.	2d/	di-	4dd\	ou'-
!	!	!	!	!LO:SIC:v:t=custos d	!	!	!	!	!
4B/	-bra	8G/	è	4g\	-bra	.	.	8b/	-è
.	.	8G/	quel-	.	.	.	.	8dd\	quell'-
!	!	!	!	!LO:LB:g=original	!	!	!	!	!
=12-	=12-	=12-	=12-	=12-	=12-	=12-	=12-	=12-	=12-
2r	.	8E/	-l'om-	2r	.	4e/	-co	8ccny\	-om-
.	.	8D/	.	.	.	.	.	8b\	.
.	.	8E/	.	.	.	8e/	ou'-	8cc\	.
!	!	!LO:SIC:v:t=custos G	!	!	!	!	!	!	!
.	.	8F/	.	.	.	8d/	-è	8a/	.
!	!	!LO:LB:g=original	!	!	!	!	!	!	!
4g\	ou'-	4G/	.	4d\	ou'-	8B/	quell'-	4b/	.
.	.	.	.	.	.	8c/	-om-	.	.
8g\	-v	4G/	-bra	8B/	-è	8d/	.	4b/	-bra
8g\	quell'-	.	.	8d\	quell	8B/	.	.	.
8e\	-om-	1r	.	8c/	om-	2A/	.	1r	.
8d\	.	.	.	8B/	.	.	.	.	.
8e\	.	.	.	8c/	.	.	.	.	.
8f\	.	.	.	8A/	.	.	.	.	.
4g\	.	.	.	4B/	.	2G/	-bra	.	.
4g\	-bra	.	.	4B/	-bra	.	.	.	.
=13-	=13-	=13-	=13-	=13-	=13-	=13-	=13-	=13-	=13-
4r	.	4r	.	4r	.	4r	.	4r	.
4.e\	Ec-	4.C/	Ec-	4.c/	Ec-	4.g\	Ec-	4.ee\	Ec-
8e\	-co	8C/	-co	8c/	-co	8g\	-co	8ee\	-co
!LO:SIC:v:t=custos c	!	!	!	!	!	!	!	!LO:SIC:v:t=custos ff	!
4e\	che	4C/	che	4c/	che	4g\	che	4ee\	che
!LO:LB:g=original	!	!	!	!	!	!	!	!LO:LB:g=original	!
1c	già	1F	già	1A	già	1a	già	1ff	già
=14-	=14-	=14-	=14-	=14-	=14-	=14-	=14-	=14-	=14-
4g\	con	4C/	con	4G/	con	4cc\	con	4ee\	con
2g\	libr'-	2G/	libr'-	2B/	libr'-	2b\	libr'-	2dd\	libr'-
!	!	!	!	!	!	!LO:SIC:v:t=custos g	!	!	!
4e\	-al-	4A/	-al-	4c/	-al-	4a\	-al-	4cc\	-al-
!	!	!	!	!	!	!LO:LB:g=original	!	!	!
4e\	-berg'-	4E/	-berg'-	4G/	-berg'-	4g\	-berg'-	4cc\	-berg'-
!	!	!	!	!LO:SIC:v:t=custos A	!	!	!	!	!
4d\	-il	4G/	-il	4G/	-il	4g\	-il	4b/	-il
!	!	!	!	!LO:LB:g=original	!	!	!	!	!
2d\	ſo-	2D/	ſo-	2A/	ſo-	2f#X\	ſo-	2a/	ſo-
=15-	=15-	=15-	=15-	=15-	=15-	=15-	=15-	=15-	=15-
1d	-le	1D	-le	2A/	-le	1fny	-le	1a	-le
.	.	.	.	4d\	Per-	.	.	.	.
.	.	.	.	4d\	-che	.	.	.	.
1r	.	4G/	Per-	4.d\	non	1r	.	4b/	Per-
.	.	4G/	-che	.	.	.	.	4b/	-che
.	.	.	.	8c\	la	.	.	.	.
.	.	4.G/	non	4d\	veg-	.	.	4.b/	non
.	.	.	.	4.e\	-g'io	.	.	.	.
.	.	8F/	la	.	.	.	.	8a/	la
=16-	=16-	=16-	=16-	=16-	=16-	=16-	=16-	=16-	=16-
!	!	!LO:SIC:v:t=custos A	!	!	!	!	!	!	!
1r	.	4G/	veg-	.	.	2r	.	4b/	veg-
.	.	.	.	8d\	nel	.	.	.	.
!	!	!LO:LB:g=original	!	!	!	!	!	!	!
.	.	4.A/	-g'io	8c/	ric-	.	.	4.cc\	-g'io
.	.	.	.	8B/	-co	.	.	.	.
.	.	.	.	2A/	col-	4a\	Per-	.	.
.	.	8G/	nel	.	.	.	.	8b/	nel
.	.	8F/	ric-	.	.	4a\	-che	8a/	ric-
.	.	8E/	-co	.	.	.	.	8g/	-co
4d\	Per-	2D/	col-	2A/	-le	4.a\	non	2.f#X/	col-
4d\	-che	.	.	.	.	.	.	.	.
.	.	.	.	.	.	8g\	la	.	.
4.d\	non	4D/	-le	2r	.	4a\	veg-	.	.
.	.	4.G/	non	.	.	4.b#X\	-g'io	4g/	-le
8c/	la	.	.	.	.	.	.	.	.
=17-	=17-	=17-	=17-	=17-	=17-	=17-	=17-	=17-	=17-
4d\	veg-	.	.	2r	.	.	nel	2r	.
.	.	8F/J	la	.	.	8a\	ric-	.	.
4.e\	-g'io	4G/	veg-	.	.	8g\	-co	.	.
.	.	.	.	.	.	8f\	col-	.	.
.	.	4.A/	-g'io	4A/	Per-	2e/	-le	4cc\	Per-
8d\	nel	.	.	.	.	.	.	.	.
!	!	!	!	!	!	!	!	!LO:SIC:v:t=custos cc	!
8c/	ric-	.	.	4A/	-che	.	.	4cc\	-che
8B/	-co	8Bny\	nel	.	.	.	.	.	.
!	!	!	!	!	!	!	!	!LO:LB:g=original	!
4A/	col-	8c\	ric-	4.A/	non	2a\	Per-	4.cc\	non
.	.	8d\	-co	.	.	.	.	.	.
4c/	-le	2e\	col-	.	.	.	.	.	.
!	!	!	!	!LO:SIC:v:t=custos A	!	!	!	!	!
.	.	.	.	8G/	la	.	.	8b/	la
!	!	!	!	!LO:LB:g=original	!	!	!	!	!
2r	.	.	.	4A/	veg-	4r	.	4cc\	veg-
.	.	4d\	-le	4.B/	-g'io	4bny\	-che	4.dd\	-g'io
=18-	=18-	=18-	=18-	=18-	=18-	=18-	=18-	=18-	=18-
4r	.	2G/	Per-	.	.	4b\	nõ(n)	.	.
.	.	.	.	8A/	nel	.	.	8cc\	nel
!LO:SIC:v:t=custos g	!	!	!	!	!	!	!	!	!
*	*ij	*	*	*	*	*	*	*	*
4g\	Per-	.	.	8B/	ric-	4.b\	la	8b/	ric-
.	.	.	.	8c/	-co	.	.	8a/	-co
!LO:LB:g=original	!	!	!	!	!	!	!	!	!
4g\	-che	2G/	-che	2d\	col-	.	.	4g/	col-
.	.	.	.	.	.	8a\	veg-	.	.
!	!	!	!	!	!	!LO:SIC:v:t=custos cc	!	!	!
4.g\	non	.	.	.	.	4b\	-g'io	4dd\	-le
!	!	!LO:SIC:v:t=custos c	!	!	!	!LO:LB:g=original	!	!	!
.	.	2c\	Per-	2e\	-le	4.cc\	nel	2r	.
8f\	la	.	.	.	.	.	.	.	.
4g\	veg-	.	.	.	.	.	.	.	.
.	.	.	.	.	.	8b\	ric-	.	.
!	!	!LO:LB:g=original	!	!	!	!	!	!	!
4.a\	-'gio	4c\	-che	2r	.	8a\	-co	4r	.
.	.	.	.	.	.	8g\	col-	.	.
.	.	4.d\	non	.	.	4f\	-le	4.dd\	non
8g\	nel	.	.	.	.	.	.	.	.
=19-	=19-	=19-	=19-	=19-	=19-	=19-	=19-	=19-	=19-
8f\	ric-	.	.	2r	.	2a\	nel	.	.
8e\	-co	8c\	la	.	.	.	.	8ee\	la
4d\	col-	4d\	veg-	.	.	.	.	4ff#X\	veg-
2c/	-le	4.e\	-g'io	4r	.	4cc\	ric-	4.gg\	-g'io
.	.	.	.	4c/	nel	4.g\	-co	.	.
.	.	8d\	nel	.	.	.	.	8ff#\	nel
1r	.	8c\	ric-	4.e\	ric-	.	.	8ee\	ric-
.	.	8B\	-co	.	.	8g\	.	8dd\	-co
.	.	4A/	col-	.	.	4a\	col-	2cc\	col-
.	.	.	.	8f\	-co	.	.	.	.
.	.	2G/	-le	4g\	col-	2d/	-le	.	.
!	!	!	!	!	!	!	!	!LO:SIC:v:t=custos ee	!
.	.	.	.	4g\	-le	.	.	4b/	-le
*	*Xij	*	*	*	*	*	*	*	*
!	!	!	!	!	!	!	!	!LO:LB:g=original	!
=20-	=20-	=20-	=20-	=20-	=20-	=20-	=20-	=20-	=20-
4r	.	4r	.	4r	.	4r	.	4r	.
4.c/	Ec-	4.C/	Ec-	4.e\	Ec-	4.g\	Ec-	4.ee\	Ec-
8c/	-co	8C/	-co	8e\	-co	8g\	-co	8ee\	-co
4c/	che	4C/	che	4e\	che	4g\	che	4ee\	che
1c	già	1F	già	1A	già	1a	già	1ffny	già
=21-	=21-	=21-	=21-	=21-	=21-	=21-	=21-	=21-	=21-
4g\	con	4C/	con	4G/	con	4cc\	con	4ee\	con
2g\	libr'-	2G/	libr'-	2B/	libr'-	2b\	libr'-	2dd\	libr'-
!	!	!	!	!LO:SIC:v:t=custos G	!	!	!	!	!
4e\	-al-	4A/	-al-	4c/	-al-	4a\	-al-	4cc\	-al-
!	!	!	!	!LO:LB:g=original	!	!	!	!	!
4e\	-berg'-	4E/	-berg'-	4G/	-berg'-	4g\	-berg'-	4cc\	-berg'-
!LO:SIC:v:t=custos d	!	!LO:SIC:v:t=custos D	!	!	!	!LO:SIC:v:t=custos f	!	!	!
4d\	-il	4G/	-il	4G/	-il	4g\	-il	4b/	-il
!LO:LB:g=original	!	!LO:LB:g=original	!	!	!	!LO:LB:g=original	!	!	!
2d\	ſo-	2D/	ſo-	2A/	ſo-	2f#X\	ſo-	2a/	ſo-
=22-	=22-	=22-	=22-	=22-	=22-	=22-	=22-	=22-	=22-
1d	-le	1D	-le	2A/	-le	1f#X	-le	1a	-le
.	.	.	.	4d\	Per-	.	.	.	.
.	.	.	.	4d\	-che	.	.	.	.
1r	.	4G/	Per-	4.d\	non	1r	.	4b/	Per-
.	.	4G/	-che	.	.	.	.	4b/	-che
.	.	.	.	8c/	a	.	.	.	.
.	.	4.G/	non	4d\	veg-	.	.	4.b/	non
.	.	.	.	4.e\	-g'io	.	.	.	.
.	.	8F/	la	.	.	.	.	8a/	la
=23-	=23-	=23-	=23-	=23-	=23-	=23-	=23-	=23-	=23-
2r	.	4G/	veg-	.	.	2r	.	4b/	veg-
.	.	.	.	8d\	nel	.	.	.	.
.	.	4.A/	-g'io	8c/	ric-	.	.	4.cc\	-g'io
.	.	.	.	8B/	-co	.	.	.	.
4c/	Per-	.	.	2A/	col-	4a\	Per-	.	.
.	.	8G/	nel	.	.	.	.	8b/	nel
4c/	-che	8F/	ric-	.	.	4a\	-che	8a/	ric-
!	!	!	!	!	!	!	!	!LO:SIC:v:t=custos f	!
.	.	8E/	-co	.	.	.	.	8g/	-co
!	!	!	!	!	!	!	!	!LO:LB:g=original	!
4.d\	non	2.D/	col-	2A/	-le	4.a\	non	2.f#X/	col-
8c/	la	.	.	.	.	8a\	la	.	.
4d\	veg-	.	.	2r	.	4b\	veg-	.	.
4.e\	-g'io	4C/	-le	.	.	4.cc\	-g'io	4g/	-le
=24-	=24-	=24-	=24-	=24-	=24-	=24-	=24-	=24-	=24-
.	.	2c\	Per-	2e\	Per-	.	.	1r	.
8d\	nel	.	.	.	.	8b\	nel	.	.
8c/	ric-	.	.	.	.	8a\	ric-	.	.
8B/	-co	.	.	.	.	8g\	-co	.	.
2A/	col-	2c\	-che	2e\	-che	4a\	col-	.	.
.	.	.	.	.	.	4e/	-le	.	.
1G	-le	4.d\	non	4g\	per-	1r	.	4b/	Per-
!	!	!	!	!LO:SIC:v:t=custos g	!	!	!	!	!
.	.	.	.	4g\	-che	.	.	4b/	-che
.	.	8c\	la	.	.	.	.	.	.
!	!	!LO:SIC:v:t=custos e	!	!LO:LB:g=original	!	!	!	!	!
.	.	4d\	veg-	4.g\	non	.	.	4.b/	non
!	!	!LO:LB:g=original	!	!	!	!	!	!	!
.	.	4.e\	-g'io	.	.	.	.	.	.
.	.	.	.	8f\	la	.	.	8a/	la
=25-	=25-	=25-	=25-	=25-	=25-	=25-	=25-	=25-	=25-
4r	.	.	.	4g\	veg-	1r	.	4b/	veg-
.	.	8d\	nel	.	.	.	.	.	.
4c/	Per-	8c\	ric-	4.e\	-g'io	.	.	4.cc\	-g'io
.	.	8B\	-co	.	.	.	.	.	.
2c/	-che	2A/	col-	.	.	.	.	.	.
.	.	.	.	8d\	nel	.	.	8dd\	nel
.	.	.	.	8c/	ric-	.	.	8ee\	ric-
.	.	.	.	8A/	-co	.	.	8ff\	-co
4.d\	non	2G/	-le	2B/	col-	4b\	Per-	2gg\	col-
.	.	.	.	.	.	4b\	-che	.	.
!LO:SIC:v:t=custos d	!	!	!	!	!	!	!	!	!
8c/	la	.	.	.	.	.	.	.	.
!LO:LB:g=original	!	!	!	!	!	!	!	!	!
4d\	veg-	4.G/	non	2B/	-le	4.b\	non	2g/	-le
4.e\	-g'io	.	.	.	.	.	.	.	.
!	!	!	!	!	!	!LO:SIC:v:t=custos b	!	!	!
.	.	8F/	la	.	.	8a\	la	.	.
!	!	!	!	!	!	!LO:LB:g=original	!	!	!
=26-	=26-	=26-	=26-	=26-	=26-	=26-	=26-	=26-	=26-
.	.	4G/	veg-	4r	.	4b\	veg-	4r	.
8d\	nel	.	.	.	.	.	.	.	.
8c/	ric-	4.A/	-g'io	4e\	nel	4.cc\	-g'io	4a/	nel
8B/	-co	.	.	.	.	.	.	.	.
8A/	col-	.	.	4e\	ric-	.	.	4cc\	ric-
8B/	.	8G/	nel	.	.	8b\	nel	.	.
2c/	.	8F/	ric-	4f\	-co	8a\	ric-	4cc\	-co
.	.	8E/	-co	.	.	8g\	-co	.	.
.	.	1D	col-	1F	col-	1fny	col-	1dd	col-
8B/	.	.	.	.	.	.	.	.	.
8A/	.	.	.	.	.	.	.	.	.
2B/	.	.	.	.	.	.	.	.	.
=27-	=27-	=27-	=27-	=27-	=27-	=27-	=27-	=27-	=27-
00c	-le	00C	-le.	00G	-le.	00e	-le.	00g	-le.
==	==	==	==	==	==	==	==	==	==
*-	*-	*-	*-	*-	*-	*-	*-	*-	*-
!!!system-decoration: [(s1,s2,s3,s4,s5)]
!!!ENC: Andrzej Gręziak
!!!END: 2022-06-07
!!!ENC: Jan Barakat
!!!END: 2022-07-18
